X:3011
%%etbk:tnset id:178,pos:1,rep:3
T:Ryan's Slip Jig
H: Created 2013-02-19 /  No Piano Box Version Yet
R:Slip Jig
M:9/8
L:1/8
K:D
|:FAA FAd AFD|FAA FAd B2A|FAA FAd AFD|EDB, DFA B2A:|
|:f2f faf edB|A2f fef gfe|f2f faf edB|AFE DFA B2A:|






